Komodo-Biru/apps/scalable/chromium-browser.svg

<?xml version="1.0" encoding="UTF-8" standalone="no"?>
<!-- Created with Inkscape (http://www.inkscape.org/) -->
<svg id="svg2" xmlns:rdf="http://www.w3.org/1999/02/22-rdf-syntax-ns#" xmlns="http://www.w3.org/2000/svg" height="96" width="96" version="1.1" xmlns:cc="http://creativecommons.org/ns#" xmlns:xlink="http://www.w3.org/1999/xlink" xmlns:dc="http://purl.org/dc/elements/1.1/">
 <defs id="defs4">
  <filter id="filter6279" color-interpolation-filters="sRGB">
   <feGaussianBlur id="feGaussianBlur6281" stdDeviation="0.8"/>
  </filter>
  <linearGradient id="linearGradient6438" x1="48" xlink:href="#linearGradient4044" gradientUnits="userSpaceOnUse" y1="1052.4" gradientTransform="translate(0 -.0000096172)" x2="48" y2="902.36"/>
  <linearGradient id="linearGradient4044">
   <stop id="stop4046-8" style="stop-color:#2f5a88" offset="0"/>
   <stop id="stop4048-3" style="stop-color:#346396;stop-opacity:0" offset="1"/>
  </linearGradient>
  <linearGradient id="linearGradient3987" x1="48" gradientUnits="userSpaceOnUse" y1="90" gradientTransform="matrix(1.0909 0 0 1.0909 -4.3636 -4.3636)" x2="48" y2="5.9877">
   <stop id="stop3702-74" style="stop-color:#e0e0e0" offset="0"/>
   <stop id="stop3704-18" style="stop-color:#fff" offset="1"/>
  </linearGradient>
  <radialGradient id="radialGradient3883" gradientUnits="userSpaceOnUse" cy="-6.55" cx="48" gradientTransform="matrix(1.9048 0 0 .625 -43.429 12.094)" r="42">
   <stop id="stop3879" style="stop-color:#5f89b7" offset="0"/>
   <stop id="stop3881-5" style="stop-color:#4071a0" offset="1"/>
  </radialGradient>
  <radialGradient id="radialGradient3910" gradientUnits="userSpaceOnUse" cy="57.493" cx="80.272" gradientTransform="matrix(0 2.6037 -2.4521 0 198.11 -168.18)" r="21">
   <stop id="stop3906" style="stop-color:#d0e2f1" offset="0"/>
   <stop id="stop3976" style="stop-color:#c6dcef" offset=".60883"/>
   <stop id="stop3970-9" style="stop-color:#b1cfea" offset=".79731"/>
   <stop id="stop3908" style="stop-color:#92bce3" offset="1"/>
  </radialGradient>
  <radialGradient id="radialGradient3902" gradientUnits="userSpaceOnUse" cy="55.203" cx="30.792" gradientTransform="matrix(0 1.6123 -1.6664 0 132.2 -1.574)" r="30.406">
   <stop id="stop3898" style="stop-color:#89b7e1" offset="0"/>
   <stop id="stop3974" style="stop-color:#85b4df" offset=".57429"/>
   <stop id="stop3972" style="stop-color:#77a9d9" offset=".75"/>
   <stop id="stop3900" style="stop-color:#679cd2" offset="1"/>
  </radialGradient>
  <radialGradient id="radialGradient3873" gradientUnits="userSpaceOnUse" cy="37.516" cx="45.438" gradientTransform="matrix(2.6228e-8 1.7778 -2.6667 3.9342e-8 148.04 -47)" r="16">
   <stop id="stop3869-53" style="stop-color:#98bbe2" offset="0"/>
   <stop id="stop3871-8" style="stop-color:#3878bb" offset="1"/>
  </radialGradient>
  <linearGradient id="linearGradient4034" x1="49.923" xlink:href="#linearGradient4044" gradientUnits="userSpaceOnUse" x2="55.387" y1="26.065" y2="42.517"/>
  <linearGradient id="linearGradient4042" x1="63.781" xlink:href="#linearGradient4044" gradientUnits="userSpaceOnUse" x2="39.037" y1="63.379" y2="66.37"/>
  <linearGradient id="linearGradient3196" x1="25.87" xlink:href="#linearGradient4044" gradientUnits="userSpaceOnUse" x2="36.989" y1="51.935" y2="30.996"/>
 </defs>
 <metadata id="metadata7">
  <rdf:RDF>
   <cc:Work rdf:about="">
    <dc:format>image/svg+xml</dc:format>
    <dc:type rdf:resource="http://purl.org/dc/dcmitype/StillImage"/>
    <dc:title/>
   </cc:Work>
  </rdf:RDF>
 </metadata>
 <g id="layer1" transform="translate(0 -956.36)">
  <g id="g7183" transform="translate(2.861e-8 -.0000095886)">
   <rect id="rect9283" style="filter:url(#filter6279)" rx="5" ry="5" height="80" width="80" y="964.36" x="8"/>
   <rect id="rect9285" style="fill:url(#linearGradient6438)" rx="5" ry="5" height="80" width="80" y="964.36" x="8"/>
   <g id="g3119" transform="matrix(.65476 0 0 .65476 16.571 972.93)">
    <path id="path4012" style="fill:#dca325" d="m46 16c-3.324 0-6 2.676-6 6v5.5c2.48-0.96874 5.177-1.5 8-1.5 12.15 0 22 9.8497 22 22h20v-32h-44z"/>
    <path id="path3999" style="fill:#3b9342" d="m69.938 49.5c-0.23 3.4467-1.2393 6.67-2.875 9.5-0.08047 0.13923-0.16659 0.26897-0.25 0.40625-3.859 6.351-10.839 10.594-18.813 10.594-2.828 0-5.516-0.529-8-1.5v21.5h32v-36c0-1.8062-0.80762-3.4018-2.0625-4.5z"/>
    <path id="path3989" style="fill:#df2227" d="m6 16v56h28c2.5034 0 4.6293-1.5182 5.5312-3.6875-4.464-1.864-8.194-5.16-10.593-9.312-0.097-0.167-0.189-0.33-0.282-0.5-1.693-3.117-2.656-6.703-2.656-10.5 0-9.327 5.806-17.299 14-20.5v-5.5c0-3.324-2.676-6-6-6h-28z"/>
    <path id="rect3982" style="fill:url(#linearGradient3987)" d="m48 24c-13.255 0-24 10.745-24 24s10.745 24 24 24 24-10.745 24-24-10.745-24-24-24z"/>
    <path id="path3824" style="fill:url(#radialGradient3883)" d="m12 6c-3.324 0-6 2.676-6 6v7.281l22.656 39.219c-1.693-3.117-2.656-6.703-2.656-10.5 0-12.15 9.85-22 22-22h42v-14c0-3.324-2.676-6-6-6h-72z"/>
    <path id="path3847" style="fill:url(#radialGradient3910)" d="m48 26c12.15 0 22 9.8497 22 22 0 4.0043-1.0681 7.7657-2.9375 11-0.08047 0.13923-0.16659 0.26897-0.25 0.40625l-17.656 30.594h34.844c3.324 0 6-2.676 6-6v-58h-42z"/>
    <path id="path3849" style="fill:url(#radialGradient3902)" d="m6 19.281v64.719c0 3.324 2.676 6 6 6h37.156l17.656-30.594c-3.858 6.351-10.838 10.594-18.812 10.594-8.146 0-15.26-4.42-19.062-11-0.097-0.167-0.189-0.33-0.282-0.5l-22.656-39.219z"/>
    <path id="path3822" style="color:#000000;fill:url(#radialGradient3873)" transform="matrix(1.1875,0,0,1.1875,-9,-9)" d="m64 48a16 16 0 1 1 -32 0 16 16 0 1 1 32 0z"/>
    <path id="path3929" style="opacity:.3;fill:url(#linearGradient4034)" d="m48 26c6.9455 0 13.124 3.223 17.156 8.25l24.844-6.094v-2.156h-42z"/>
    <path id="path3933" style="opacity:.25;fill:url(#linearGradient4042)" d="m66.812 59.406c-3.308 5.445-8.912 9.344-15.468 10.344l-5.9375 20.25h3.75l17.656-30.594z"/>
    <path id="path3935" style="fill:url(#linearGradient3196)" d="m6 16.312v2.969l22.656 39.219c-1.693-3.117-2.656-6.703-2.656-10.5 0-2.8724 0.56126-5.6095 1.5625-8.125l-21.562-23.563z"/>
   </g>
  </g>
 </g>
</svg>

<?xml version="1.0" encoding="UTF-8" standalone="no"?>
<!-- Created with Inkscape (http://www.inkscape.org/) -->

<svg
   xmlns:dc="http://purl.org/dc/elements/1.1/"
   xmlns:cc="http://creativecommons.org/ns#"
   xmlns:rdf="http://www.w3.org/1999/02/22-rdf-syntax-ns#"
   xmlns:svg="http://www.w3.org/2000/svg"
   xmlns="http://www.w3.org/2000/svg"
   xmlns:xlink="http://www.w3.org/1999/xlink"
   xmlns:sodipodi="http://sodipodi.sourceforge.net/DTD/sodipodi-0.dtd"
   xmlns:inkscape="http://www.inkscape.org/namespaces/inkscape"
   id="svg2"
   height="96"
   width="96"
   version="1.1"
   inkscape:version="0.48.3.1 r9886"
   sodipodi:docname="chromium-browser.svg">
  <sodipodi:namedview
     pagecolor="#ffffff"
     bordercolor="#666666"
     borderopacity="1"
     objecttolerance="10"
     gridtolerance="10"
     guidetolerance="10"
     inkscape:pageopacity="0"
     inkscape:pageshadow="2"
     inkscape:window-width="1280"
     inkscape:window-height="663"
     id="namedview49"
     showgrid="false"
     inkscape:zoom="2.4583333"
     inkscape:cx="48.003489"
     inkscape:cy="46.208187"
     inkscape:window-x="0"
     inkscape:window-y="22"
     inkscape:window-maximized="1"
     inkscape:current-layer="svg2" />
  <defs
     id="defs4">
    <filter
       id="filter6279"
       color-interpolation-filters="sRGB">
      <feGaussianBlur
         id="feGaussianBlur6281"
         stdDeviation="0.8" />
    </filter>
    <linearGradient
       id="linearGradient6438"
       x1="48"
       xlink:href="#linearGradient4044"
       gradientUnits="userSpaceOnUse"
       y1="1052.4"
       gradientTransform="translate(0,-9.6172e-6)"
       x2="48"
       y2="902.36" />
    <linearGradient
       id="linearGradient4044">
      <stop
         id="stop4046-8"
         style="stop-color:#2f5a88"
         offset="0" />
      <stop
         id="stop4048-3"
         style="stop-color:#346396;stop-opacity:0"
         offset="1" />
    </linearGradient>
    <linearGradient
       id="linearGradient3987"
       x1="48"
       gradientUnits="userSpaceOnUse"
       y1="90"
       gradientTransform="matrix(1.0909,0,0,1.0909,-4.3636,-4.3636)"
       x2="48"
       y2="5.9877">
      <stop
         id="stop3702-74"
         style="stop-color:#e0e0e0"
         offset="0" />
      <stop
         id="stop3704-18"
         style="stop-color:#fff"
         offset="1" />
    </linearGradient>
    <radialGradient
       id="radialGradient3883"
       gradientUnits="userSpaceOnUse"
       cy="-6.55"
       cx="48"
       gradientTransform="matrix(1.9048,0,0,0.625,-43.429,12.094)"
       r="42">
      <stop
         id="stop3879"
         style="stop-color:#5f89b7"
         offset="0" />
      <stop
         id="stop3881-5"
         style="stop-color:#4071a0"
         offset="1" />
    </radialGradient>
    <radialGradient
       id="radialGradient3910"
       gradientUnits="userSpaceOnUse"
       cy="57.493"
       cx="80.272"
       gradientTransform="matrix(0,2.6037,-2.4521,0,198.11,-168.18)"
       r="21">
      <stop
         id="stop3906"
         style="stop-color:#d0e2f1"
         offset="0" />
      <stop
         id="stop3976"
         style="stop-color:#c6dcef"
         offset=".60883" />
      <stop
         id="stop3970-9"
         style="stop-color:#b1cfea"
         offset=".79731" />
      <stop
         id="stop3908"
         style="stop-color:#92bce3"
         offset="1" />
    </radialGradient>
    <radialGradient
       id="radialGradient3902"
       gradientUnits="userSpaceOnUse"
       cy="55.203"
       cx="30.792"
       gradientTransform="matrix(0,1.6123,-1.6664,0,132.2,-1.574)"
       r="30.406">
      <stop
         id="stop3898"
         style="stop-color:#89b7e1"
         offset="0" />
      <stop
         id="stop3974"
         style="stop-color:#85b4df"
         offset=".57429" />
      <stop
         id="stop3972"
         style="stop-color:#77a9d9"
         offset=".75" />
      <stop
         id="stop3900"
         style="stop-color:#679cd2"
         offset="1" />
    </radialGradient>
    <radialGradient
       id="radialGradient3873"
       gradientUnits="userSpaceOnUse"
       cy="37.516"
       cx="45.438"
       gradientTransform="matrix(2.6228e-8,1.7778,-2.6667,3.9342e-8,148.04,-47)"
       r="16">
      <stop
         id="stop3869-53"
         style="stop-color:#98bbe2"
         offset="0" />
      <stop
         id="stop3871-8"
         style="stop-color:#3878bb"
         offset="1" />
    </radialGradient>
    <linearGradient
       id="linearGradient4034"
       x1="49.923"
       xlink:href="#linearGradient4044"
       gradientUnits="userSpaceOnUse"
       x2="55.387"
       y1="26.065"
       y2="42.517" />
    <linearGradient
       id="linearGradient4042"
       x1="63.781"
       xlink:href="#linearGradient4044"
       gradientUnits="userSpaceOnUse"
       x2="39.037"
       y1="63.379"
       y2="66.37" />
    <linearGradient
       id="linearGradient3196"
       x1="25.87"
       xlink:href="#linearGradient4044"
       gradientUnits="userSpaceOnUse"
       x2="36.989"
       y1="51.935"
       y2="30.996" />
    <linearGradient
       inkscape:collect="always"
       xlink:href="#linearGradient4044"
       id="linearGradient3041"
       gradientUnits="userSpaceOnUse"
       gradientTransform="translate(0,-9.6172e-6)"
       x1="48"
       y1="1052.4"
       x2="48"
       y2="902.36" />
    <linearGradient
       inkscape:collect="always"
       xlink:href="#linearGradient3987"
       id="linearGradient3043"
       gradientUnits="userSpaceOnUse"
       gradientTransform="matrix(1.0909,0,0,1.0909,-4.3636,-4.3636)"
       x1="48"
       y1="90"
       x2="48"
       y2="5.9877" />
    <radialGradient
       inkscape:collect="always"
       xlink:href="#radialGradient3883"
       id="radialGradient3045"
       gradientUnits="userSpaceOnUse"
       gradientTransform="matrix(1.9048,0,0,0.625,-43.429,12.094)"
       cx="48"
       cy="-6.55"
       r="42" />
    <radialGradient
       inkscape:collect="always"
       xlink:href="#radialGradient3910"
       id="radialGradient3047"
       gradientUnits="userSpaceOnUse"
       gradientTransform="matrix(0,2.6037,-2.4521,0,198.11,-168.18)"
       cx="80.272"
       cy="57.493"
       r="21" />
    <radialGradient
       inkscape:collect="always"
       xlink:href="#radialGradient3902"
       id="radialGradient3049"
       gradientUnits="userSpaceOnUse"
       gradientTransform="matrix(0,1.6123,-1.6664,0,132.2,-1.574)"
       cx="30.792"
       cy="55.203"
       r="30.406" />
    <radialGradient
       inkscape:collect="always"
       xlink:href="#radialGradient3873"
       id="radialGradient3051"
       gradientUnits="userSpaceOnUse"
       gradientTransform="matrix(2.6228e-8,1.7778,-2.6667,3.9342e-8,148.04,-47)"
       cx="45.438"
       cy="37.516"
       r="16" />
    <linearGradient
       inkscape:collect="always"
       xlink:href="#linearGradient4044"
       id="linearGradient3053"
       gradientUnits="userSpaceOnUse"
       x1="49.923"
       y1="26.065"
       x2="55.387"
       y2="42.517" />
    <linearGradient
       inkscape:collect="always"
       xlink:href="#linearGradient4044"
       id="linearGradient3055"
       gradientUnits="userSpaceOnUse"
       x1="63.781"
       y1="63.379"
       x2="39.037"
       y2="66.37" />
    <linearGradient
       inkscape:collect="always"
       xlink:href="#linearGradient4044"
       id="linearGradient3057"
       gradientUnits="userSpaceOnUse"
       x1="25.87"
       y1="51.935"
       x2="36.989"
       y2="30.996" />
    <linearGradient
       inkscape:collect="always"
       xlink:href="#linearGradient4044"
       id="linearGradient3072"
       gradientUnits="userSpaceOnUse"
       gradientTransform="translate(2.861e-8,-956.36002)"
       x1="48"
       y1="1052.4"
       x2="48"
       y2="902.36" />
    <linearGradient
       inkscape:collect="always"
       xlink:href="#linearGradient3987"
       id="linearGradient3089"
       gradientUnits="userSpaceOnUse"
       gradientTransform="matrix(1.0909,0,0,1.0909,-4.3636,-4.3636)"
       x1="48"
       y1="90"
       x2="48"
       y2="5.9877" />
    <radialGradient
       inkscape:collect="always"
       xlink:href="#radialGradient3883"
       id="radialGradient3091"
       gradientUnits="userSpaceOnUse"
       gradientTransform="matrix(1.9048,0,0,0.625,-43.429,12.094)"
       cx="48"
       cy="-6.55"
       r="42" />
    <radialGradient
       inkscape:collect="always"
       xlink:href="#radialGradient3910"
       id="radialGradient3093"
       gradientUnits="userSpaceOnUse"
       gradientTransform="matrix(0,2.6037,-2.4521,0,198.11,-168.18)"
       cx="80.272"
       cy="57.493"
       r="21" />
    <radialGradient
       inkscape:collect="always"
       xlink:href="#radialGradient3902"
       id="radialGradient3095"
       gradientUnits="userSpaceOnUse"
       gradientTransform="matrix(0,1.6123,-1.6664,0,132.2,-1.574)"
       cx="30.792"
       cy="55.203"
       r="30.406" />
    <radialGradient
       inkscape:collect="always"
       xlink:href="#radialGradient3873"
       id="radialGradient3097"
       gradientUnits="userSpaceOnUse"
       gradientTransform="matrix(2.6228e-8,1.7778,-2.6667,3.9342e-8,148.04,-47)"
       cx="45.438"
       cy="37.516"
       r="16" />
    <linearGradient
       inkscape:collect="always"
       xlink:href="#linearGradient4044"
       id="linearGradient3099"
       gradientUnits="userSpaceOnUse"
       x1="49.923"
       y1="26.065"
       x2="55.387"
       y2="42.517" />
    <linearGradient
       inkscape:collect="always"
       xlink:href="#linearGradient4044"
       id="linearGradient3101"
       gradientUnits="userSpaceOnUse"
       x1="63.781"
       y1="63.379"
       x2="39.037"
       y2="66.37" />
    <linearGradient
       inkscape:collect="always"
       xlink:href="#linearGradient4044"
       id="linearGradient3103"
       gradientUnits="userSpaceOnUse"
       x1="25.87"
       y1="51.935"
       x2="36.989"
       y2="30.996" />
  </defs>
  <metadata
     id="metadata7">
    <rdf:RDF>
      <cc:Work
         rdf:about="">
        <dc:format>image/svg+xml</dc:format>
        <dc:type
           rdf:resource="http://purl.org/dc/dcmitype/StillImage" />
        <dc:title />
      </cc:Work>
    </rdf:RDF>
  </metadata>
  <rect
     id="rect9283"
     style="filter:url(#filter6279)"
     rx="5"
     ry="5"
     height="80"
     width="80"
     y="7.9999752"
     x="8" />
  <rect
     id="rect9285"
     style="fill:url(#linearGradient3072)"
     rx="5"
     ry="5"
     height="80"
     width="80"
     y="7.9999752"
     x="8" />
  <g
     id="g3075"
     transform="matrix(1.1996912,0,0,1.1996912,-9.4834127,-9.8560593)">
    <g
       transform="matrix(0.65476,0,0,0.65476,16.571,16.56999)"
       id="g3119">
      <path
         inkscape:connector-curvature="0"
         d="m 46,16 c -3.324,0 -6,2.676 -6,6 v 5.5 c 2.48,-0.96874 5.177,-1.5 8,-1.5 12.15,0 22,9.8497 22,22 H 90 V 16 H 46 z"
         style="fill:#dca325"
         id="path4012" />
      <path
         inkscape:connector-curvature="0"
         d="m 69.938,49.5 c -0.23,3.4467 -1.2393,6.67 -2.875,9.5 -0.08047,0.13923 -0.16659,0.26897 -0.25,0.40625 -3.859,6.351 -10.839,10.594 -18.813,10.594 -2.828,0 -5.516,-0.529 -8,-1.5 v 21.5 h 32 v -36 c 0,-1.8062 -0.80762,-3.4018 -2.0625,-4.5 z"
         style="fill:#3b9342"
         id="path3999" />
      <path
         inkscape:connector-curvature="0"
         d="m 6,16 v 56 h 28 c 2.5034,0 4.6293,-1.5182 5.5312,-3.6875 -4.464,-1.864 -8.194,-5.16 -10.593,-9.312 -0.097,-0.167 -0.189,-0.33 -0.282,-0.5 -1.693,-3.117 -2.656,-6.703 -2.656,-10.5 0,-9.327 5.806,-17.299 14,-20.5 v -5.5 c 0,-3.324 -2.676,-6 -6,-6 h -28 z"
         style="fill:#df2227"
         id="path3989" />
      <path
         inkscape:connector-curvature="0"
         d="M 48,24 C 34.745,24 24,34.745 24,48 24,61.255 34.745,72 48,72 61.255,72 72,61.255 72,48 72,34.745 61.255,24 48,24 z"
         style="fill:url(#linearGradient3089)"
         id="rect3982" />
      <path
         inkscape:connector-curvature="0"
         d="M 12,6 C 8.676,6 6,8.676 6,12 v 7.281 L 28.656,58.5 C 26.963,55.383 26,51.797 26,48 26,35.85 35.85,26 48,26 H 90 V 12 C 90,8.676 87.324,6 84,6 H 12 z"
         style="fill:url(#radialGradient3091)"
         id="path3824" />
      <path
         inkscape:connector-curvature="0"
         d="m 48,26 c 12.15,0 22,9.8497 22,22 0,4.0043 -1.0681,7.7657 -2.9375,11 -0.08047,0.13923 -0.16659,0.26897 -0.25,0.40625 l -17.656,30.594 h 34.844 c 3.324,0 6,-2.676 6,-6 v -58 h -42 z"
         style="fill:url(#radialGradient3093)"
         id="path3847" />
      <path
         inkscape:connector-curvature="0"
         d="M 6,19.281 V 84 c 0,3.324 2.676,6 6,6 H 49.156 L 66.812,59.406 C 62.954,65.757 55.974,70 48,70 39.854,70 32.74,65.58 28.938,59 28.841,58.833 28.749,58.67 28.656,58.5 L 6,19.281 z"
         style="fill:url(#radialGradient3095)"
         id="path3849" />
      <path
         inkscape:connector-curvature="0"
         d="m 64,48 a 16,16 0 1 1 -32,0 16,16 0 1 1 32,0 z"
         transform="matrix(1.1875,0,0,1.1875,-9,-9)"
         style="color:#000000;fill:url(#radialGradient3097)"
         id="path3822" />
      <path
         inkscape:connector-curvature="0"
         d="m 48,26 c 6.9455,0 13.124,3.223 17.156,8.25 L 90,28.156 V 26 H 48 z"
         style="opacity:0.3;fill:url(#linearGradient3099)"
         id="path3929" />
      <path
         inkscape:connector-curvature="0"
         d="M 66.812,59.406 C 63.504,64.851 57.9,68.75 51.344,69.75 L 45.4065,90 h 3.75 l 17.656,-30.594 z"
         style="opacity:0.25;fill:url(#linearGradient3101)"
         id="path3933" />
      <path
         inkscape:connector-curvature="0"
         d="m 6,16.312 v 2.969 L 28.656,58.5 C 26.963,55.383 26,51.797 26,48 c 0,-2.8724 0.56126,-5.6095 1.5625,-8.125 L 6.0005,16.312 z"
         style="fill:url(#linearGradient3103)"
         id="path3935" />
    </g>
  </g>
</svg>
